img/bulidings2.svg

<svg width="32" height="32" viewBox="0 0 32 32" fill="none" xmlns="http://www.w3.org/2000/svg">
<path d="M29.3337 28.3333H2.66699C2.12033 28.3333 1.66699 28.7866 1.66699 29.3333C1.66699 29.88 2.12033 30.3333 2.66699 30.3333H29.3337C29.8803 30.3333 30.3337 29.88 30.3337 29.3333C30.3337 28.7866 29.8803 28.3333 29.3337 28.3333Z" fill="#191A23"/>
<path opacity="0.4" d="M22.6667 2.66669H9.33333C5.33333 2.66669 4 5.05335 4 8.00002V29.3334H28V8.00002C28 5.05335 26.6667 2.66669 22.6667 2.66669Z" fill="#191A23"/>
<path d="M13.333 23H9.33301C8.78634 23 8.33301 22.5467 8.33301 22C8.33301 21.4533 8.78634 21 9.33301 21H13.333C13.8797 21 14.333 21.4533 14.333 22C14.333 22.5467 13.8797 23 13.333 23Z" fill="#191A23"/>
<path d="M22.667 23H18.667C18.1203 23 17.667 22.5467 17.667 22C17.667 21.4533 18.1203 21 18.667 21H22.667C23.2137 21 23.667 21.4533 23.667 22C23.667 22.5467 23.2137 23 22.667 23Z" fill="#191A23"/>
<path d="M13.333 17H9.33301C8.78634 17 8.33301 16.5467 8.33301 16C8.33301 15.4533 8.78634 15 9.33301 15H13.333C13.8797 15 14.333 15.4533 14.333 16C14.333 16.5467 13.8797 17 13.333 17Z" fill="#191A23"/>
<path d="M22.667 17H18.667C18.1203 17 17.667 16.5467 17.667 16C17.667 15.4533 18.1203 15 18.667 15H22.667C23.2137 15 23.667 15.4533 23.667 16C23.667 16.5467 23.2137 17 22.667 17Z" fill="#191A23"/>
<path d="M13.333 11H9.33301C8.78634 11 8.33301 10.5467 8.33301 10C8.33301 9.45333 8.78634 9 9.33301 9H13.333C13.8797 9 14.333 9.45333 14.333 10C14.333 10.5467 13.8797 11 13.333 11Z" fill="#191A23"/>
<path d="M22.667 11H18.667C18.1203 11 17.667 10.5467 17.667 10C17.667 9.45333 18.1203 9 18.667 9H22.667C23.2137 9 23.667 9.45333 23.667 10C23.667 10.5467 23.2137 11 22.667 11Z" fill="#191A23"/>
</svg>

<svg xmlns="http://www.w3.org/2000/svg" width="32" height="32" fill="none"><path fill="#191A23" d="M29.334 28.333H2.667c-.547 0-1 .454-1 1 0 .547.453 1 1 1h26.667c.546 0 1-.453 1-1s-.454-1-1-1"/><path fill="#191A23" d="M22.667 2.667H9.333C5.333 2.667 4 5.053 4 8v21.333h24V8c0-2.947-1.333-5.333-5.333-5.333" opacity=".4"/><path fill="#191A23" d="M13.333 23h-4c-.547 0-1-.453-1-1s.453-1 1-1h4c.547 0 1 .453 1 1s-.453 1-1 1M22.667 23h-4c-.547 0-1-.453-1-1s.453-1 1-1h4c.547 0 1 .453 1 1s-.453 1-1 1M13.333 17h-4c-.547 0-1-.453-1-1s.453-1 1-1h4c.547 0 1 .453 1 1s-.453 1-1 1M22.667 17h-4c-.547 0-1-.453-1-1s.453-1 1-1h4c.547 0 1 .453 1 1s-.453 1-1 1M13.333 11h-4c-.547 0-1-.453-1-1s.453-1 1-1h4c.547 0 1 .453 1 1s-.453 1-1 1M22.667 11h-4c-.547 0-1-.453-1-1s.453-1 1-1h4c.547 0 1 .453 1 1s-.453 1-1 1"/></svg>
